Adwaita++/status/32/offline.svg

<svg height="32" width="32" xmlns="http://www.w3.org/2000/svg">
  <rect fill="#4795d1" height="28" rx="14" transform="matrix(0 -1 -1 0 0 0)" width="28" x="-30" y="-30"/>
  <path d="m16 6.9999995c-5.522856 0-10 4.4771425-10 10.0000005 0 5.522857 4.477144 10 10 10 5.522857 0 10-4.477143 10-10 0-5.522858-4.477143-10.0000005-10-10.0000005zm-.935546 1.9941407c.108806-.01139.245686.0065.355469 0 .01301.05204-.07708.238754-.201172.509765-.790216 1.7262878-.8369 3.7475278-.103516 4.8281248.132716.195919.253907.38202.253907.40625 0 .02424-.142858.05078-.304688.05078-.3799.000001-.740065-.230841-1.474609-.8125-.326312-.25839-.749712-.474962-.914063-.507812-.258081-.05156-.326284-.02922-.660156.304688-.310635.310584-.40625.47934-.40625.763671 0 1.078223 1.280827 1.933146 3.660156 2.437501 3.231223.684838 4.026104 1.298953 4.115234 2.998047.111903 2.130617-1.02133 3.736741-3.505859 4.980469-.296546.148492-.484954.207879-.609375.255859-.05514-.0049-.09933.0049-.154297 0-.02114-.06587-.05078-.218244-.05078-.507812 0-1.131635-.445068-2.297836-1.117187-2.949219-.180417-.174873-.684591-.544709-1.117188-.8125-.432581-.267775-.869537-.578221-.966797-.710937-.161141-.220234-.172666-.354868-.04883-.761719.22568-.743064.493412-1.159404 1.015625-1.628906.273776-.246141.548725-.450179.609375-.455079.06067-.0049-.34908-.129893-.964844-.255859-.615733-.12621-1.518682-.390047-1.984375-.558594-.851565-.308125-2.001132-.955678-2.439453-1.423828-.01853-.01985-.034681-.03321-.050781-.05078.628012-2.501606 2.390201-4.551008 4.726563-5.539062.488855-.2067678.99342-.3482228 1.525391-.4570318.264977-.05416.538902-.0757.8125-.103516zm7.624999 3.8124998c.191025.118078.913249 1.680238 1.119141 2.441406.265819.982672.246579 2.682023 0 3.658204-.09385.37154-.21585.718459-.25586.761719s-.186741-.203394-.357422-.50586c-.170692-.302419-.712909-.94574-1.166015-1.423828-1.307875-1.380072-1.514642-2.099757-.966797-3.201173.276282-.555408 1.479111-1.821708 1.626953-1.730468z" opacity=".2"/>
  <path d="m16 2c-7.756 0-14 6.244-14 14 0 .169.0195.333.0254.5.2641-7.5206 6.3878-13.5 13.975-13.5s13.711 5.9794 13.975 13.5c.006-.16736.0254-.33116.0254-.5 0-7.756-6.244-14-14-14z" fill="#fff" opacity=".2"/>
  <path d="m16 5.9999995c-5.522856 0-10 4.4771425-10 9.9999995 0 5.522858 4.477144 10.000001 10 10.000001 5.522857 0 10-4.477143 10-10.000001 0-5.522857-4.477143-9.9999995-10-9.9999995zm-.935546 1.9941407c.108806-.01139.245686.0065.355469 0 .01301.05204-.07708.238754-.201172.509765-.790216 1.7262878-.8369 3.7475278-.103516 4.8281248.132716.195919.253907.38202.253907.40625 0 .02424-.142858.05078-.304688.05078-.3799.000001-.740065-.230841-1.474609-.8125-.326312-.25839-.749712-.474962-.914063-.507812-.258081-.05156-.326284-.02922-.660156.304688-.310635.310584-.40625.47934-.40625.763671 0 1.078223 1.280827 1.933145 3.660156 2.4375 3.231223.684839 4.026104 1.298954 4.115234 2.998048.111903 2.130617-1.02133 3.736741-3.505859 4.980469-.296546.148492-.484954.207879-.609375.255859-.05514-.0049-.09933.0049-.154297 0-.02114-.06587-.05078-.218244-.05078-.507812 0-1.131635-.445068-2.297836-1.117187-2.949219-.180417-.174873-.684591-.544709-1.117188-.8125-.432581-.267775-.869537-.578221-.966797-.710937-.161141-.220234-.172666-.354868-.04883-.761719.22568-.743064.493412-1.159404 1.015625-1.628906.273776-.246141.548725-.450179.609375-.455079.06067-.0049-.34908-.129893-.964844-.255859-.615733-.12621-1.518682-.390048-1.984375-.558595-.851565-.308125-2.001132-.955677-2.439453-1.423827-.01853-.01985-.034681-.03321-.050781-.05078.628012-2.501606 2.390201-4.5510078 4.726563-5.5390618.488855-.206768.99342-.348223 1.525391-.457032.264977-.05416.538902-.0757.8125-.103516zm7.624999 3.8124998c.191025.118078.913249 1.680238 1.119141 2.441406.265819.982671.246579 2.682023 0 3.658204-.09385.37154-.21585.718459-.25586.761719s-.186741-.203394-.357422-.50586c-.170692-.302419-.712909-.94574-1.166015-1.423828-1.307875-1.380073-1.514642-2.099757-.966797-3.201173.276282-.555408 1.479111-1.821708 1.626953-1.730468z" fill="#fff"/>
  <path d="m2.0254 16.5c-.0059.167-.0254.331-.0254.5 0 7.756 6.244 14 14 14s14-6.244 14-14c0-.16884-.01952-.33264-.02539-.5-.264 7.521-6.388 13.5-13.975 13.5-7.5872 0-13.711-5.979-13.975-13.5z" opacity=".2"/>
  <circle cx="25" cy="24" fill="#db3c30" r="7"/>
  <path d="m31.977 24.459a7 7 0 0 1 -6.977 6.541 7 7 0 0 1 -6.977-6.459 7 7 0 0 0 -.023.459 7 7 0 0 0 7 7 7 7 0 0 0 7-7 7 7 0 0 0 -.02344-.54102z" opacity=".2"/>
  <path d="m22.878906 20.464844-1.414062 1.414062 2.121094 2.121094-2.121094 2.121094 1.414062 1.414062 2.121094-2.121094 2.121094 2.121094 1.414062-1.414062-2.121094-2.121094 2.121094-2.121094-1.414062-1.414062-2.121094 2.121094z" fill="#fff"/>
</svg>

<svg xmlns="http://www.w3.org/2000/svg" width="32" height="32" version="1">
 <rect style="fill:#4795d1" width="28" height="28" x="-30" y="-30" rx="14" ry="14" transform="matrix(0,-1,-1,0,0,0)"/>
 <path style="opacity:0.2" d="M 16,6.9999995 C 10.477144,6.9999995 6,11.477142 6,17 6,22.522857 10.477144,27 16,27 21.522857,27 26,22.522857 26,17 26,11.477142 21.522857,6.9999995 16,6.9999995 Z m -0.935546,1.9941407 c 0.108806,-0.01139 0.245686,0.0065 0.355469,0 0.01301,0.05204 -0.07708,0.238754 -0.201172,0.509765 -0.790216,1.7262878 -0.8369,3.7475278 -0.103516,4.8281248 0.132716,0.195919 0.253907,0.38202 0.253907,0.40625 0,0.02424 -0.142858,0.05078 -0.304688,0.05078 -0.3799,1e-6 -0.740065,-0.230841 -1.474609,-0.8125 -0.326312,-0.25839 -0.749712,-0.474962 -0.914063,-0.507812 -0.258081,-0.05156 -0.326284,-0.02922 -0.660156,0.304688 -0.310635,0.310584 -0.40625,0.47934 -0.40625,0.763671 0,1.078223 1.280827,1.933146 3.660156,2.437501 3.231223,0.684838 4.026104,1.298953 4.115234,2.998047 0.111903,2.130617 -1.02133,3.736741 -3.505859,4.980469 -0.296546,0.148492 -0.484954,0.207879 -0.609375,0.255859 -0.05514,-0.0049 -0.09933,0.0049 -0.154297,0 -0.02114,-0.06587 -0.05078,-0.218244 -0.05078,-0.507812 0,-1.131635 -0.445068,-2.297836 -1.117187,-2.949219 -0.180417,-0.174873 -0.684591,-0.544709 -1.117188,-0.8125 -0.432581,-0.267775 -0.869537,-0.578221 -0.966797,-0.710937 -0.161141,-0.220234 -0.172666,-0.354868 -0.04883,-0.761719 0.22568,-0.743064 0.493412,-1.159404 1.015625,-1.628906 0.273776,-0.246141 0.548725,-0.450179 0.609375,-0.455079 0.06067,-0.0049 -0.34908,-0.129893 -0.964844,-0.255859 -0.615733,-0.12621 -1.518682,-0.390047 -1.984375,-0.558594 C 9.638669,16.260233 8.489102,15.61268 8.050781,15.14453 8.032251,15.12468 8.0161,15.11132 8,15.09375 c 0.628012,-2.501606 2.390201,-4.551008 4.726563,-5.539062 0.488855,-0.2067678 0.99342,-0.3482228 1.525391,-0.4570318 0.264977,-0.05416 0.538902,-0.0757 0.8125,-0.103516 z m 7.624999,3.8124998 c 0.191025,0.118078 0.913249,1.680238 1.119141,2.441406 0.265819,0.982672 0.246579,2.682023 0,3.658204 -0.09385,0.37154 -0.21585,0.718459 -0.25586,0.761719 -0.04001,0.04326 -0.186741,-0.203394 -0.357422,-0.50586 C 23.02462,18.85969 22.482403,18.216369 22.029297,17.738281 20.721422,16.358209 20.514655,15.638524 21.0625,14.537108 21.338782,13.9817 22.541611,12.7154 22.689453,12.80664 Z"/>
 <path style="opacity:0.2;fill:#ffffff" d="M 16,2 C 8.244,2 2,8.244 2,16 2,16.169 2.0195,16.333 2.0254,16.5 2.2895,8.9794 8.4132,3 16.0004,3 c 7.5872,0 13.711,5.9794 13.975,13.5 0.006,-0.16736 0.0254,-0.33116 0.0254,-0.5 0,-7.756 -6.244,-14 -14,-14 z"/>
 <path style="fill:#ffffff" d="m 16,5.9999995 c -5.522856,0 -10,4.4771425 -10,9.9999995 C 6,21.522857 10.477144,26 16,26 21.522857,26 26,21.522857 26,15.999999 26,10.477142 21.522857,5.9999995 16,5.9999995 Z m -0.935546,1.9941407 c 0.108806,-0.01139 0.245686,0.0065 0.355469,0 0.01301,0.05204 -0.07708,0.238754 -0.201172,0.509765 -0.790216,1.7262878 -0.8369,3.7475278 -0.103516,4.8281248 0.132716,0.195919 0.253907,0.38202 0.253907,0.40625 0,0.02424 -0.142858,0.05078 -0.304688,0.05078 -0.3799,1e-6 -0.740065,-0.230841 -1.474609,-0.8125 -0.326312,-0.25839 -0.749712,-0.474962 -0.914063,-0.507812 -0.258081,-0.05156 -0.326284,-0.02922 -0.660156,0.304688 -0.310635,0.310584 -0.40625,0.47934 -0.40625,0.763671 0,1.078223 1.280827,1.933145 3.660156,2.4375 3.231223,0.684839 4.026104,1.298954 4.115234,2.998048 0.111903,2.130617 -1.02133,3.736741 -3.505859,4.980469 -0.296546,0.148492 -0.484954,0.207879 -0.609375,0.255859 -0.05514,-0.0049 -0.09933,0.0049 -0.154297,0 -0.02114,-0.06587 -0.05078,-0.218244 -0.05078,-0.507812 0,-1.131635 -0.445068,-2.297836 -1.117187,-2.949219 -0.180417,-0.174873 -0.684591,-0.544709 -1.117188,-0.8125 -0.432581,-0.267775 -0.869537,-0.578221 -0.966797,-0.710937 -0.161141,-0.220234 -0.172666,-0.354868 -0.04883,-0.761719 0.22568,-0.743064 0.493412,-1.159404 1.015625,-1.628906 0.273776,-0.246141 0.548725,-0.450179 0.609375,-0.455079 0.06067,-0.0049 -0.34908,-0.129893 -0.964844,-0.255859 -0.615733,-0.12621 -1.518682,-0.390048 -1.984375,-0.558595 C 9.638669,15.260232 8.489102,14.61268 8.050781,14.14453 8.032251,14.12468 8.0161,14.11132 8,14.09375 c 0.628012,-2.501606 2.390201,-4.5510078 4.726563,-5.5390618 0.488855,-0.206768 0.99342,-0.348223 1.525391,-0.457032 0.264977,-0.05416 0.538902,-0.0757 0.8125,-0.103516 z m 7.624999,3.8124998 c 0.191025,0.118078 0.913249,1.680238 1.119141,2.441406 0.265819,0.982671 0.246579,2.682023 0,3.658204 -0.09385,0.37154 -0.21585,0.718459 -0.25586,0.761719 -0.04001,0.04326 -0.186741,-0.203394 -0.357422,-0.50586 C 23.02462,17.85969 22.482403,17.216369 22.029297,16.738281 20.721422,15.358208 20.514655,14.638524 21.0625,13.537108 21.338782,12.9817 22.541611,11.7154 22.689453,11.80664 Z"/>
 <path style="opacity:0.2" d="M 2.0254,16.5 C 2.0195,16.667 2,16.831 2,17 c 0,7.756 6.244,14 14,14 7.756,0 14,-6.244 14,-14 0,-0.16884 -0.01952,-0.33264 -0.02539,-0.5 -0.264,7.521 -6.388,13.5 -13.975,13.5 -7.5872,0 -13.711,-5.979 -13.975,-13.5 z"/>
 <circle style="fill:#db3c30" cx="25" cy="24" r="7"/>
 <path style="opacity:0.2" d="M 31.977,24.459 A 7,7 0 0 1 25,31 7,7 0 0 1 18.023,24.541 7,7 0 0 0 18,25 a 7,7 0 0 0 7,7 7,7 0 0 0 7,-7 7,7 0 0 0 -0.02344,-0.54102 z"/>
 <path style="fill:#ffffff" d="M 22.878906 20.464844 L 21.464844 21.878906 L 23.585938 24 L 21.464844 26.121094 L 22.878906 27.535156 L 25 25.414062 L 27.121094 27.535156 L 28.535156 26.121094 L 26.414062 24 L 28.535156 21.878906 L 27.121094 20.464844 L 25 22.585938 L 22.878906 20.464844 z"/>
</svg>
